symbols/web/line_weight/materialsymbolsrounded/line_weight_wght100_40px.svg

<svg xmlns="http://www.w3.org/2000/svg" height="40" width="40"><path d="M10.875 25.917q-.167 0-.313-.146-.145-.146-.145-.354 0-.209.145-.355.146-.145.355-.145h18.208q.167 0 .313.145.145.146.145.355 0 .208-.145.354-.146.146-.355.146Zm-.25 3.666q-.042 0-.125-.083-.083-.083-.083-.167 0-.125.083-.187.083-.063.167-.063h18.708q.083 0 .146.084.062.083.062.125 0 .125-.062.208-.063.083-.188.083Zm.542-7.833q-.334 0-.542-.208-.208-.209-.208-.542v.083q0-.333.208-.541.208-.209.542-.209h17.666q.334 0 .542.209.208.208.208.541V21q0 .333-.208.542-.208.208-.542.208Zm.416-4.667q-.5 0-.833-.333-.333-.333-.333-.833v-4.334q0-.5.333-.833.333-.333.833-.333h16.834q.5 0 .833.333.333.333.333.833v4.334q0 .5-.333.833-.333.333-.833.333Z"/></svg>

<svg xmlns="http://www.w3.org/2000/svg" height="40" width="40"><path d="M10.875 25.917Q10.708 25.917 10.562 25.771Q10.417 25.625 10.417 25.417Q10.417 25.208 10.562 25.062Q10.708 24.917 10.917 24.917H29.125Q29.292 24.917 29.438 25.062Q29.583 25.208 29.583 25.417Q29.583 25.625 29.438 25.771Q29.292 25.917 29.083 25.917ZM10.625 29.583Q10.583 29.583 10.5 29.5Q10.417 29.417 10.417 29.333Q10.417 29.208 10.5 29.146Q10.583 29.083 10.667 29.083H29.375Q29.458 29.083 29.521 29.167Q29.583 29.25 29.583 29.292Q29.583 29.417 29.521 29.5Q29.458 29.583 29.333 29.583ZM11.167 21.75Q10.833 21.75 10.625 21.542Q10.417 21.333 10.417 21V21.083Q10.417 20.75 10.625 20.542Q10.833 20.333 11.167 20.333H28.833Q29.167 20.333 29.375 20.542Q29.583 20.75 29.583 21.083V21Q29.583 21.333 29.375 21.542Q29.167 21.75 28.833 21.75ZM11.583 17.083Q11.083 17.083 10.75 16.75Q10.417 16.417 10.417 15.917V11.583Q10.417 11.083 10.75 10.75Q11.083 10.417 11.583 10.417H28.417Q28.917 10.417 29.25 10.75Q29.583 11.083 29.583 11.583V15.917Q29.583 16.417 29.25 16.75Q28.917 17.083 28.417 17.083Z"/></svg>
